public/images/logos/logo-gm.svg

<svg width="209" height="209" viewBox="0 0 209 209" fill="none" xmlns="http://www.w3.org/2000/svg">
<g clip-path="url(#clip0_7_134)">
<path d="M26.9675 0C12.0738 0 0 12.0738 0 26.9675V182.03C0 196.924 12.0738 208.998 26.9675 208.998H182.03C196.924 208.998 208.998 196.924 208.998 182.03V26.9675C208.998 12.0738 196.924 0 182.03 0H26.9675ZM26.9675 13.4837H182.03C189.477 13.4837 195.514 19.5207 195.514 26.9675V182.03C195.514 189.477 189.477 195.514 182.03 195.514H26.9675C19.5207 195.514 13.4837 189.477 13.4837 182.03V26.9675C13.4837 19.5207 19.5207 13.4837 26.9675 13.4837Z" fill="white"/>
<path d="M94.386 141.579V155.063H168.547V141.579H94.386ZM94.386 53.9349V126.41H109.555V67.4187H124.724V126.41H139.894V67.4187H150.006C152.799 67.4187 155.063 69.6827 155.063 72.4751V126.41H170.232V70.7896C170.232 61.4812 162.686 53.9349 153.377 53.9349H94.386ZM55.6203 53.9349C46.3119 53.9349 38.7656 61.4812 38.7656 70.7896V109.555C38.7656 118.864 46.3119 126.41 55.6203 126.41H69.104V129.781C69.104 136.297 63.0671 141.579 55.6203 141.579H47.193V155.063H55.6203C71.4447 155.063 84.2732 143.744 84.2732 129.781V53.9349H55.6203ZM58.9912 67.4187H69.104V112.926H58.9912C56.1988 112.926 53.9348 110.662 53.9348 107.87V72.4751C53.9348 69.6827 56.1988 67.4187 58.9912 67.4187Z" fill="white"/>
</g>
<defs>
<clipPath id="clip0_7_134">
<rect width="209" height="209" fill="white"/>
</clipPath>
</defs>
</svg>

<svg xmlns="http://www.w3.org/2000/svg" width="209" height="209" fill="none" viewBox="0 0 209 209"><g fill="#fff" clip-path="url(#a)"><path d="M26.968 0C12.074 0 0 12.074 0 26.968V182.03c0 14.894 12.074 26.968 26.968 26.968H182.03c14.894 0 26.968-12.074 26.968-26.968V26.968C208.998 12.074 196.924 0 182.03 0zm0 13.484H182.03c7.447 0 13.484 6.037 13.484 13.484V182.03c0 7.447-6.037 13.484-13.484 13.484H26.968c-7.447 0-13.484-6.037-13.484-13.484V26.968c0-7.447 6.037-13.484 13.484-13.484"/><path d="M94.386 141.579v13.484h74.161v-13.484zm0-87.644v72.475h15.169V67.419h15.169v58.991h15.17V67.419h10.112a5.057 5.057 0 0 1 5.057 5.056v53.935h15.169V70.79c0-9.309-7.546-16.855-16.855-16.855zm-38.766 0c-9.308 0-16.854 7.546-16.854 16.855v38.765c0 9.309 7.546 16.855 16.854 16.855h13.484v3.371c0 6.516-6.037 11.798-13.484 11.798h-8.427v13.484h8.427c15.825 0 28.653-11.319 28.653-25.282V53.935zm3.371 13.484h10.113v45.507H58.991a5.057 5.057 0 0 1-5.056-5.056V72.475a5.057 5.057 0 0 1 5.056-5.056"/></g><defs><clipPath id="a"><path fill="#fff" d="M0 0h209v209H0z"/></clipPath></defs></svg>
